src/pages/guidelines/pictograms/images/16_Containers_4_dont.svg

<?xml version="1.0" encoding="UTF-8"?>
<svg width="288px" height="288px" viewBox="0 0 288 288" version="1.1" xmlns="http://www.w3.org/2000/svg" xmlns:xlink="http://www.w3.org/1999/xlink">
    <!-- Generator: Sketch 52.5 (67469) - http://www.bohemiancoding.com/sketch -->
    <title>Artboard Copy 28</title>
    <desc>Created with Sketch.</desc>
    <defs>
        <polygon id="path-1" points="0 0 184 0 184 183.998686 0 183.998686"></polygon>
        <polygon id="path-3" points="0 184 184 184 184 0 0 0"></polygon>
    </defs>
    <g id="Artboard-Copy-28" stroke="none" stroke-width="1" fill="none" fill-rule="evenodd">
        <rect id="Rectangle-3-Copy-45" fill="#FFFFFF" x="0" y="0" width="288" height="288"></rect>
        <g id="Group-27-Copy" transform="translate(52.000000, 52.000000)">
            <g id="Group-3">
                <mask id="mask-2" fill="white">
                    <use xlink:href="#path-1"></use>
                </mask>
                <g id="Clip-2"></g>
                <path d="M184,91.9986857 C184,142.812257 142.810286,183.998686 92,183.998686 C41.1897143,183.998686 0,142.812257 0,91.9986857 C0,41.1884 41.1897143,-0.00131428571 92,-0.00131428571 C142.810286,-0.00131428571 184,41.1884 184,91.9986857" id="Fill-1" fill="#DDDDDD" mask="url(#mask-2)"></path>
            </g>
            <mask id="mask-4" fill="white">
                <use xlink:href="#path-3"></use>
            </mask>
            <g id="Clip-5"></g>
            <path d="M13.5535714,170.446429 L170.446429,170.446429 L170.446429,13.5535714 L13.5535714,13.5535714 L13.5535714,170.446429 Z M12.7321429,171.267857 L171.267857,171.267857 L171.267857,12.7321429 L12.7321429,12.7321429 L12.7321429,171.267857 Z" id="Fill-4" fill="#006AFE" mask="url(#mask-4)"></path>
            <path d="M39.8392857,144.160714 L144.160714,144.160714 L144.160714,39.8392857 L39.8392857,39.8392857 L39.8392857,144.160714 Z M39.0178571,144.982143 L144.982143,144.982143 L144.982143,39.0178571 L39.0178571,39.0178571 L39.0178571,144.982143 Z" id="Fill-6" fill="#006AFE" mask="url(#mask-4)"></path>
            <polygon id="Fill-7" fill="#FFFFFF" mask="url(#mask-4)" points="13.1428571 39.4285714 39.4285714 39.4285714 39.4285714 13.1428571 13.1428571 13.1428571"></polygon>
            <path d="M13.5535714,39.0178571 L39.0178571,39.0178571 L39.0178571,13.5535714 L13.5535714,13.5535714 L13.5535714,39.0178571 Z M12.7321429,39.8392857 L39.8392857,39.8392857 L39.8392857,12.7321429 L12.7321429,12.7321429 L12.7321429,39.8392857 Z" id="Fill-8" fill="#006AFE" mask="url(#mask-4)"></path>
            <polygon id="Fill-9" fill="#FFFFFF" mask="url(#mask-4)" points="144.571429 39.4285714 170.857143 39.4285714 170.857143 13.1428571 144.571429 13.1428571"></polygon>
            <path d="M144.982143,39.0178571 L170.446429,39.0178571 L170.446429,13.5535714 L144.982143,13.5535714 L144.982143,39.0178571 Z M144.160714,39.8392857 L171.267857,39.8392857 L171.267857,12.7321429 L144.160714,12.7321429 L144.160714,39.8392857 Z" id="Fill-10" fill="#006AFE" mask="url(#mask-4)"></path>
            <polygon id="Fill-11" fill="#FFFFFF" mask="url(#mask-4)" points="13.1428571 170.857143 39.4285714 170.857143 39.4285714 144.571429 13.1428571 144.571429"></polygon>
            <path d="M13.5535714,170.446429 L39.0178571,170.446429 L39.0178571,144.982143 L13.5535714,144.982143 L13.5535714,170.446429 Z M12.7321429,171.267857 L39.8392857,171.267857 L39.8392857,144.160714 L12.7321429,144.160714 L12.7321429,171.267857 Z" id="Fill-12" fill="#006AFE" mask="url(#mask-4)"></path>
            <polygon id="Fill-13" fill="#FFFFFF" mask="url(#mask-4)" points="144.571429 170.857143 170.857143 170.857143 170.857143 144.571429 144.571429 144.571429"></polygon>
            <path d="M144.982143,170.446429 L170.446429,170.446429 L170.446429,144.982143 L144.982143,144.982143 L144.982143,170.446429 Z M144.160714,171.267857 L171.267857,171.267857 L171.267857,144.160714 L144.160714,144.160714 L144.160714,171.267857 Z" id="Fill-14" fill="#006AFE" mask="url(#mask-4)"></path>
            <path d="M126.498357,90.2884714 C125.640786,90.2884714 124.944214,89.5951857 124.944214,88.7343286 L124.944214,80.1093286 C124.944214,79.2517571 125.640786,78.5584714 126.498357,78.5584714 C127.355929,78.5584714 128.049214,79.2517571 128.049214,80.1093286 L128.049214,88.7343286 C128.049214,89.5951857 127.355929,90.2884714 126.498357,90.2884714" id="Fill-15" fill="#000000" mask="url(#mask-4)"></path>
            <path d="M147.844329,81.4453 C147.443471,81.4453 147.049186,81.2941571 146.7469,80.9885857 L140.648614,74.8935857 C140.040757,74.2857286 140.040757,73.3000143 140.648614,72.6954429 C141.256471,72.0875857 142.235614,72.0875857 142.843471,72.6954429 L148.938471,78.7904429 C149.546329,79.3983 149.546329,80.3840143 148.938471,80.9885857 C148.636186,81.2941571 148.2419,81.4453 147.844329,81.4453" id="Fill-16" fill="#000000" mask="url(#mask-4)"></path>
            <path d="M105.152386,81.4453 C104.754814,81.4453 104.357243,81.2941571 104.054957,80.9885857 C103.4471,80.3840143 103.4471,79.3983 104.054957,78.7904429 L110.153243,72.6954429 C110.7611,72.0875857 111.743529,72.0875857 112.3481,72.6954429 C112.955957,73.3000143 112.955957,74.2857286 112.3481,74.8935857 L106.249814,80.9885857 C105.947529,81.2941571 105.549957,81.4453 105.152386,81.4453" id="Fill-17" fill="#000000" mask="url(#mask-4)"></path>
            <path d="M126.498357,69.9324857 C120.219357,69.9324857 115.113357,64.8264857 115.113357,58.5474857 C115.113357,52.2684857 120.219357,47.1624857 126.498357,47.1624857 C132.774071,47.1624857 137.883357,52.2684857 137.883357,58.5474857 C137.883357,64.8264857 132.774071,69.9324857 126.498357,69.9324857 M126.498357,44.0574857 C118.5075,44.0574857 112.008357,50.5599143 112.008357,58.5474857 C112.008357,66.5383429 118.5075,73.0374857 126.498357,73.0374857 C134.485929,73.0374857 140.988357,66.5383429 140.988357,58.5474857 C140.988357,50.5599143 134.485929,44.0574857 126.498357,44.0574857" id="Fill-18" fill="#000000" mask="url(#mask-4)"></path>
            <path d="M156.685857,60.1009714 L148.060857,60.1009714 C147.203286,60.1009714 146.506714,59.4076857 146.506714,58.5468286 C146.506714,57.6892571 147.203286,56.9959714 148.060857,56.9959714 L156.685857,56.9959714 C157.543429,56.9959714 158.236714,57.6892571 158.236714,58.5468286 C158.236714,59.4076857 157.543429,60.1009714 156.685857,60.1009714" id="Fill-19" fill="#000000" mask="url(#mask-4)"></path>
            <path d="M104.935857,60.1009714 L96.3108571,60.1009714 C95.4532857,60.1009714 94.7567143,59.4076857 94.7567143,58.5468286 C94.7567143,57.6892571 95.4532857,56.9959714 96.3108571,56.9959714 L104.935857,56.9959714 C105.793429,56.9959714 106.486714,57.6892571 106.486714,58.5468286 C106.486714,59.4076857 105.793429,60.1009714 104.935857,60.1009714" id="Fill-20" fill="#000000" mask="url(#mask-4)"></path>
            <path d="M141.7444,44.8529571 C141.346829,44.8529571 140.952543,44.6985286 140.650257,44.3962429 C140.0424,43.7916714 140.0424,42.8059571 140.650257,42.1981 L146.745257,36.0998143 C147.353114,35.4919571 148.332257,35.4919571 148.940114,36.0998143 C149.547971,36.7076714 149.547971,37.6901 148.940114,38.3012429 L142.841829,44.3962429 C142.539543,44.6985286 142.145257,44.8529571 141.7444,44.8529571" id="Fill-21" fill="#000000" mask="url(#mask-4)"></path>
            <path d="M111.252314,44.8529571 C110.854743,44.8529571 110.457171,44.6985286 110.154886,44.3962429 L104.0566,38.3012429 C103.448743,37.6901 103.448743,36.7076714 104.0566,36.0998143 C104.661171,35.4919571 105.6436,35.4919571 106.251457,36.0998143 L112.349743,42.1981 C112.9576,42.8059571 112.9576,43.7916714 112.349743,44.3962429 C112.047457,44.6985286 111.649886,44.8529571 111.252314,44.8529571" id="Fill-22" fill="#000000" mask="url(#mask-4)"></path>
            <path d="M126.498357,38.5384714 C125.640786,38.5384714 124.944214,37.8451857 124.944214,36.9843286 L124.944214,28.3593286 C124.944214,27.5017571 125.640786,26.8084714 126.498357,26.8084714 C127.355929,26.8084714 128.049214,27.5017571 128.049214,28.3593286 L128.049214,36.9843286 C128.049214,37.8451857 127.355929,38.5384714 126.498357,38.5384714" id="Fill-23" fill="#000000" mask="url(#mask-4)"></path>
            <path d="M133.971386,158.774914 C115.426814,138.252343 93.4223857,129.101629 62.6155286,129.101629 L27.3105286,129.101629 L27.3105286,125.993343 L62.6155286,125.993343 C94.3752429,125.993343 117.092671,135.466057 136.274671,156.695057 L133.971386,158.774914 Z" id="Fill-24" fill="#000000" mask="url(#mask-4)"></path>
            <path d="M133.971386,141.524914 C115.426814,121.002343 93.4223857,111.851629 62.6155286,111.851629 L27.3105286,111.851629 L27.3105286,108.743343 L62.6155286,108.743343 C94.3752429,108.743343 117.092671,118.216057 136.274671,139.445057 L133.971386,141.524914 Z" id="Fill-25" fill="#000000" mask="url(#mask-4)"></path>
            <path d="M33.1748714,54.2353143 C33.1748714,50.3351714 36.3488714,47.1644571 40.2490143,47.1644571 C44.1458714,47.1644571 47.3198714,50.3351714 47.3198714,54.2353143 C47.3198714,58.1354571 44.1458714,61.3061714 40.2490143,61.3061714 C36.3488714,61.3061714 33.1748714,58.1354571 33.1748714,54.2353143 M59.0498714,58.5461714 C59.0498714,54.6493143 62.2238714,51.4753143 66.1240143,51.4753143 C70.0208714,51.4753143 73.1948714,54.6493143 73.1948714,58.5461714 C73.1948714,62.4463143 70.0208714,65.6203143 66.1240143,65.6203143 C62.2238714,65.6203143 59.0498714,62.4463143 59.0498714,58.5461714 M67.6748714,91.5906 L67.6748714,68.6103143 C72.5541571,67.8578857 76.2998714,63.6291714 76.2998714,58.5461714 C76.2998714,52.9341714 71.7327286,48.3703143 66.1240143,48.3703143 C60.5120143,48.3703143 55.9448714,52.9341714 55.9448714,58.5461714 C55.9448714,63.6291714 59.6905857,67.8578857 64.5698714,68.6103143 L64.5698714,91.5347429 C63.9160143,91.5248857 63.2785857,91.4953143 62.6148714,91.4953143 L41.7998714,91.4953143 L41.7998714,64.2994571 C46.6791571,63.5470286 50.4248714,59.3183143 50.4248714,54.2353143 C50.4248714,48.6200286 45.8577286,44.0561714 40.2490143,44.0561714 C34.6370143,44.0561714 30.0698714,48.6200286 30.0698714,54.2353143 C30.0698714,59.3183143 33.8155857,63.5470286 38.6948714,64.2994571 L38.6948714,91.4953143 L27.3098714,91.4953143 L27.3098714,94.6003143 L62.6148714,94.6003143 C93.4217286,94.6003143 115.429443,103.751029 133.970729,124.2736 L136.274014,122.197029 C118.127014,102.111457 96.8093,92.5664571 67.6748714,91.5906" id="Fill-26" fill="#000000" mask="url(#mask-4)"></path>
        </g>
    </g>
</svg>

<svg xmlns="http://www.w3.org/2000/svg" xmlns:xlink="http://www.w3.org/1999/xlink" viewBox="0 0 288 288"><defs><path id="a" d="M0 0h184v183.999H0z"/><path id="c" d="M0 184h184V0H0z"/></defs><g fill="none" fill-rule="evenodd"><path fill="#FFF" d="M0 0h288v288H0z"/><g transform="translate(52 52)"><mask id="b" fill="#fff"><use xlink:href="#a"/></mask><path d="M184 91.999c0 50.813-41.19 92-92 92s-92-41.187-92-92c0-50.81 41.19-92 92-92s92 41.19 92 92" fill="#DDD" mask="url(#b)"/><mask id="d" fill="#fff"><use xlink:href="#c"/></mask><path d="M13.554 170.446h156.892V13.554H13.554v156.892zm-.822.822h158.536V12.732H12.732v158.536z" fill="#006AFE" mask="url(#d)"/><path d="M39.84 144.16h104.32V39.84H39.84v104.32zm-.822.822h105.964V39.018H39.018v105.964z" fill="#006AFE" mask="url(#d)"/><path fill="#FFF" mask="url(#d)" d="M13.143 39.429h26.286V13.143H13.143z"/><path d="M13.554 39.018h25.464V13.554H13.554v25.464zm-.822.821H39.84V12.732H12.732V39.84z" fill="#006AFE" mask="url(#d)"/><path fill="#FFF" mask="url(#d)" d="M144.571 39.429h26.286V13.143h-26.286z"/><path d="M144.982 39.018h25.464V13.554h-25.464v25.464zm-.821.821h27.107V12.732H144.16V39.84z" fill="#006AFE" mask="url(#d)"/><path fill="#FFF" mask="url(#d)" d="M13.143 170.857h26.286v-26.286H13.143z"/><path d="M13.554 170.446h25.464v-25.464H13.554v25.464zm-.822.822H39.84V144.16H12.732v27.107z" fill="#006AFE" mask="url(#d)"/><path fill="#FFF" mask="url(#d)" d="M144.571 170.857h26.286v-26.286h-26.286z"/><path d="M144.982 170.446h25.464v-25.464h-25.464v25.464zm-.821.822h27.107V144.16H144.16v27.107z" fill="#006AFE" mask="url(#d)"/><path d="M126.498 90.288a1.553 1.553 0 01-1.554-1.554V80.11a1.552 1.552 0 013.105 0v8.625a1.55 1.55 0 01-1.55 1.554m21.345-8.844c-.4 0-.795-.15-1.097-.456l-6.098-6.095a1.553 1.553 0 112.194-2.199l6.095 6.095a1.553 1.553 0 010 2.199 1.53 1.53 0 01-1.094.456m-42.692 0c-.397 0-.795-.15-1.097-.456a1.553 1.553 0 010-2.199l6.098-6.095a1.553 1.553 0 112.195 2.198l-6.098 6.096c-.302.305-.7.456-1.098.456m21.346-11.513c-6.279 0-11.385-5.106-11.385-11.385s5.106-11.385 11.385-11.385c6.276 0 11.385 5.106 11.385 11.385 0 6.28-5.109 11.385-11.385 11.385m0-25.875c-7.99 0-14.49 6.503-14.49 14.49 0 7.991 6.5 14.49 14.49 14.49 7.988 0 14.49-6.499 14.49-14.49 0-7.987-6.502-14.49-14.49-14.49m30.188 16.044h-8.625a1.553 1.553 0 110-3.105h8.625c.857 0 1.55.693 1.55 1.55a1.55 1.55 0 01-1.55 1.555m-51.75 0H96.31a1.553 1.553 0 110-3.105h8.625c.857 0 1.55.693 1.55 1.55a1.55 1.55 0 01-1.55 1.555m36.809-15.248c-.397 0-.791-.154-1.094-.457a1.553 1.553 0 010-2.198l6.095-6.098a1.549 1.549 0 012.195 0c.608.608.608 1.59 0 2.201l-6.098 6.095a1.545 1.545 0 01-1.098.457m-30.492 0a1.55 1.55 0 01-1.097-.457l-6.098-6.095a1.557 1.557 0 010-2.201 1.549 1.549 0 012.194 0l6.099 6.098a1.553 1.553 0 010 2.198 1.55 1.55 0 01-1.098.457m15.246-6.315a1.553 1.553 0 01-1.554-1.554V28.36a1.552 1.552 0 013.105 0v8.625a1.55 1.55 0 01-1.55 1.554m7.472 120.236c-18.544-20.523-40.549-29.673-71.355-29.673H27.31v-3.109h35.305c31.76 0 54.477 9.473 73.659 30.702l-2.304 2.08z" fill="#000" mask="url(#d)"/><path d="M133.971 141.525c-18.544-20.523-40.549-29.673-71.355-29.673H27.31v-3.109h35.305c31.76 0 54.477 9.473 73.659 30.702l-2.304 2.08z" fill="#000" mask="url(#d)"/><path d="M33.175 54.235c0-3.9 3.174-7.07 7.074-7.07 3.897 0 7.07 3.17 7.07 7.07 0 3.9-3.173 7.071-7.07 7.071-3.9 0-7.074-3.17-7.074-7.07m25.875 4.31c0-3.897 3.174-7.07 7.074-7.07 3.897 0 7.07 3.173 7.07 7.07 0 3.9-3.173 7.074-7.07 7.074-3.9 0-7.074-3.174-7.074-7.074m8.625 33.045V68.61c4.88-.753 8.625-4.982 8.625-10.065 0-5.612-4.567-10.176-10.176-10.176-5.612 0-10.18 4.564-10.18 10.176 0 5.083 3.747 9.312 8.626 10.064v22.925c-.654-.01-1.291-.04-1.955-.04H41.8V64.3c4.88-.752 8.625-4.98 8.625-10.064 0-5.615-4.567-10.179-10.176-10.179-5.612 0-10.18 4.564-10.18 10.18 0 5.082 3.747 9.311 8.626 10.063v27.196H27.31V94.6h35.305c30.807 0 52.814 9.151 71.356 29.674l2.303-2.077c-18.147-20.086-39.465-29.63-68.6-30.606" fill="#000" mask="url(#d)"/></g></g></svg>
